img/svg/editors/book.svg

<svg width="24" height="24" viewBox="0 0 24 24" fill="none" xmlns="http://www.w3.org/2000/svg">
<path d="M12.2793 2.99902C13.6197 1.84648 15.6101 1.64287 17.5264 1.83594C19.7389 2.05953 21.9848 2.82215 23.3828 3.45801C23.439 3.48355 23.4871 3.52431 23.5205 3.57617C23.5538 3.62798 23.5713 3.68839 23.5713 3.75V20.25C23.5712 20.3036 23.5578 20.3563 23.5322 20.4033C23.5065 20.4505 23.469 20.4914 23.4238 20.5205C23.3787 20.5495 23.3269 20.5664 23.2734 20.5703C23.2198 20.5742 23.1661 20.5642 23.1172 20.542H23.1162C21.765 19.9286 19.5863 19.19 17.4609 18.9756C15.3156 18.7592 13.3441 19.0861 12.251 20.4502C12.2209 20.4877 12.182 20.5173 12.1387 20.5381C12.0953 20.5589 12.0481 20.5703 12 20.5703C11.9519 20.5703 11.9047 20.5589 11.8613 20.5381C11.818 20.5173 11.7791 20.4877 11.749 20.4502C10.6559 19.086 8.68391 18.7592 6.53711 18.9756C4.41323 19.19 2.23617 19.9287 0.883789 20.542H0.882812C0.833878 20.5642 0.780168 20.5742 0.726562 20.5703C0.673097 20.5664 0.621279 20.5495 0.576172 20.5205C0.530948 20.4914 0.493539 20.4505 0.467773 20.4033C0.44216 20.3563 0.428755 20.3036 0.428711 20.25V3.75L0.441406 3.65918C0.450008 3.63 0.462869 3.60202 0.479492 3.57617C0.512891 3.52431 0.561033 3.48355 0.617188 3.45801C2.0152 2.82215 4.26106 2.05953 6.47363 1.83594L6.47266 1.83496C8.38951 1.64328 10.3803 1.84652 11.7207 2.99902L12 3.23926L12.2793 2.99902ZM22.9287 3.95703L22.665 3.84668C21.396 3.31614 19.6068 2.74376 17.8184 2.5166L17.4609 2.47559C15.4314 2.27112 13.5627 2.55218 12.4395 3.73535L12.3213 3.85938V19.3857L12.9619 19.0225C14.2506 18.2906 15.9201 18.1749 17.5264 18.3379H17.5273C19.2489 18.5101 20.9946 19.0115 22.3477 19.5273L22.9287 19.748V3.95703ZM11.6787 3.85938L11.5605 3.73535C10.5076 2.6262 8.79955 2.3101 6.91797 2.44336L6.53906 2.47559C4.63405 2.66702 2.68858 3.28078 1.33496 3.84668L1.07129 3.95703V19.749L1.65234 19.5264C2.83452 19.0752 4.32046 18.637 5.82715 18.417L6.47363 18.3359C8.07825 18.1745 9.75012 18.2918 11.0391 19.0225L11.6787 19.3848V3.85938Z" fill="#FBFBFB" stroke="#FBFBFB" stroke-width="0.857143"/>
</svg>

<svg width="24" height="24" fill="none" xmlns="http://www.w3.org/2000/svg"><path d="M12.28 2.999c1.34-1.153 3.33-1.356 5.246-1.163 2.213.224 4.459.986 5.857 1.622a.322.322 0 01.188.292v16.5a.322.322 0 01-.454.292h0c-1.352-.613-3.53-1.352-5.656-1.566-2.145-.217-4.117.11-5.21 1.474a.322.322 0 01-.502 0c-1.093-1.364-3.065-1.69-5.212-1.474-2.124.214-4.3.953-5.653 1.566H.883a.322.322 0 01-.454-.292V3.75l.012-.09a.322.322 0 01.176-.202c1.398-.636 3.644-1.398 5.857-1.622l-.001-.001c1.917-.192 3.907.012 5.248 1.164l.279.24.28-.24zm10.649.958l-.264-.11c-1.269-.53-3.058-1.103-4.847-1.33l-.357-.041c-2.03-.205-3.898.076-5.021 1.26l-.119.123v15.527l.64-.363c1.29-.732 2.96-.848 4.565-.685h.001c1.722.172 3.468.674 4.82 1.19l.582.22V3.957zm-11.25-.098l-.119-.124C10.508 2.626 8.8 2.31 6.918 2.443l-.379.033c-1.905.191-3.85.805-5.204 1.37l-.264.111v15.792l.581-.223c1.183-.45 2.668-.889 4.175-1.109l.647-.081c1.604-.162 3.276-.044 4.565.687l.64.362V3.859z" fill="#FBFBFB" stroke="#FBFBFB" stroke-width=".857"/></svg>
